X: 329
%
T: The Lea Rig
C:
O:Scotland
B:Keith Norman MacDonald : "The Skye collection of the best reels & strathspeys extant" : 1887
Z:Ralph Palmer
R:Reel
M:C
L:1/8
K:A
c | (AF)EF A2 AB | (A/2B/2c) BA (BF)FB | AFEF ABce | faef AAA :|
f | (ef/2g/2) ae feac | B/2B/2B {/c}(BA) BFFB | AFEF A2 Aa | f2 ec eAAe |
ceag fedc | B2 {/c}BA (BF)FB | AFEF ABce | faef cAA |]


